X:473
T:Walking the Dog
C:Seldom Scene - Scene it All
N:Solo de Lou Reid - Transcribed by Philippe Colleu
R:bluegrass
L:1/8
Q:1/4=120
M:4/4
K:C
"(115 bpm)"z2 ^F2 F^G B2 | "B"d/z/^d ^f2 [f/=d/]z/^d B2 | z2 [^f/d/]z/^d [f/=d/]z/^d BA | 
"E"[B2E2] E^F ^GB ^cB | ^c/z/e ee eA d/z/^d | "B"^f2 ^g/z/f bg fb | ^g^f d/^d/d B^c df | 
"F#"[^f^c]f cf cB A_B | ^F2 FF FF F2 | {a}"II""B"bb b2 b^f e2 | {d}^dB A2 A2 A3/2A/ | 
"E""III"G/z/^G e=G ^Ge =G^G | e2 d2 "IV"{e}^fb a2 | "B"^fe {d}^d2 B2 B2 | "III"{A}"F#"_B^f2f fe zf | 
{d}"B"^dB2B {=d}^dB e{=d}^d | B2 B2 "IV"_B/=B/B ^d^f | b3[B^F] [BF][b^dBF] [bdBF][bdBF] | 
[b2^d2B2^F2] [b4d4B4F4] [b2d2B2F2] | 


